X:664
T: DER GULDNE ROSENKRANZ
N: E2049
O: Europa, Mitteleuropa, Deutschland
R: geistlich, Marien - Lied
M: 4/4
L: 1/8
K: F
c2 | cBA2GFE2 | F4z2
A2 | Bcd2cBA2 | G4z2
F2 | ABc2FGA2 | Bcd2G2
c2 | cBA2GFE2 | F4z2

